icons/portainer.svg

<svg xmlns="http://www.w3.org/2000/svg" fill="none" viewBox="0.72 0 168.18 218.62">
<g clip-path="url(#clip0_261_120684)">
<path d="M0.724609 0H80.925C136.261 0 168.905 17.2947 168.905 73.6996V75.627C168.905 132.207 136.331 149.327 80.9951 149.327H63.4901V218.05H0.724609V0ZM77.2453 101.14C94.3823 101.14 103.406 94.7791 103.406 75.7672V73.5769C103.406 54.6526 94.3823 48.1693 77.2453 48.1693H63.5077V101.122H77.2453V101.14Z" fill="black"/>
<path d="M117.222 167.329H168.642V218.618H117.222V167.329Z" fill="#FF80F2"/>
</g>
<defs>
<clipPath id="clip0_261_120684">
<rect width="168.414" height="218.719" fill="white" transform="translate(0.724609)"/>
</clipPath>
</defs>
</svg>

<svg fill="none" viewBox="0.72 0 168.18 218.62" xmlns="http://www.w3.org/2000/svg"><g clip-path="url(#a)"><path fill="#000" d="M.725 0h80.2c55.336 0 87.98 17.295 87.98 73.7v1.927c0 56.58-32.574 73.7-87.91 73.7H63.49v68.723H.725zm76.52 101.14c17.137 0 26.161-6.36 26.161-25.373v-2.19c0-18.924-9.024-25.408-26.16-25.408H63.507v52.953h13.737z"/><path fill="#FF80F2" d="M117.222 167.329h51.42v51.289h-51.42z"/></g><defs><clipPath id="a"><path fill="#fff" d="M.725 0h168.414v218.719H.725z"/></clipPath></defs></svg>
